X:1
T:The Easy Club
R:reel
M:4/4
L:1/8
K:A
|:AEAc BABd|cee^d eAce|fefg afec|dBcA BAGB|
|AEAc BABd|cee^d eAce|fefg afed|1 cABc AccB:|2 cABc Agag|]
|:~f2fd Adfa|eaae ceae|faaf dffg|afec BdcB|
|AEAc BABd|cee^d eAce|fefg afed|1 cABc Agag:|2 cABc AccB|]